X:1
T:Bauernschottisch
R:Schottisch
A:Deutschland
%%textfont Helvetica-Narrow 10pt
%%begintext align
B:"Das kleine dicke Liederbuch", Heide Buhmann, Hanspeter Haeseler, 5.Auflage, Eigenverlag, Schluechtern 1989
N:dort alle teile in G, einstimmig mit harmonie-buchstaben
%%endtext 
F:http://simonwascher.info
Z:abc transcription Simon Wascher
M:2/4
L:1/16
K:G
B2Bc B2Bc | B2A2 A4 | c2cd c2cd | c2B2 B4 |
d2d2 e2f2 | g2fe d4 | B2B2 A2A2 | G2G2G4 :|
B2B2 (BABc | B2)A2 A4 | A2D2 A2B2 | A2G2 D4 |
B2B2 (BABc | B2)A2 A4 | F2d2 c2A2 | G2B2 G4 ||
A2AB A2B2 | G2GB d4 | F2FA d4 | G2GB d4 |
A2AB A2B2 | G2GB d4 | F2FA c2F2 | G2B2 G4 |]
%%wordsfont Times-Italic 11pt
W:aus Simon Waschers TradArchiv
